frontend/public/menubutton.svg

<svg fill="none" height="64" viewBox="0 0 64 64" width="64" xmlns="http://www.w3.org/2000/svg"><path clip-rule="evenodd" d="m7.99992 10.6666h47.99998c1.4728 0 2.6667-1.19386 2.6667-2.66662s-1.1939-2.66667-2.6667-2.66667h-47.99998c-1.47276 0-2.66667 1.19391-2.66667 2.66667s1.19391 2.66662 2.66667 2.66662zm50.66668 42.6667c0 1.4728-1.1939 2.6667-2.6667 2.6667h-47.99998c-1.47276 0-2.66667-1.1939-2.66667-2.6667 0-1.4727 1.19391-2.6667 2.66667-2.6667h47.99998c1.4728 0 2.6667 1.194 2.6667 2.6667zm-50.66668-24h47.99998c1.4728 0 2.6667 1.1939 2.6667 2.6667 0 1.4727-1.1939 2.6666-2.6667 2.6666h-47.99998c-1.47276 0-2.66667-1.1939-2.66667-2.6666 0-1.4728 1.19391-2.6667 2.66667-2.6667z" fill="#000" fill-rule="evenodd"/></svg>

<svg width="64" height="64" viewBox="0 0 64 64" fill="none" xmlns="http://www.w3.org/2000/svg">
<path fill-rule="evenodd" clip-rule="evenodd" d="M7.99992 10.6666H55.9999C57.4727 10.6666 58.6666 9.47274 58.6666 7.99998C58.6666 6.52722 57.4727 5.33331 55.9999 5.33331H7.99992C6.52716 5.33331 5.33325 6.52722 5.33325 7.99998C5.33325 9.47274 6.52716 10.6666 7.99992 10.6666ZM58.6666 53.3333C58.6666 54.8061 57.4727 56 55.9999 56H7.99992C6.52716 56 5.33325 54.8061 5.33325 53.3333C5.33325 51.8606 6.52716 50.6666 7.99992 50.6666H55.9999C57.4727 50.6666 58.6666 51.8606 58.6666 53.3333ZM7.99992 29.3333H55.9999C57.4727 29.3333 58.6666 30.5272 58.6666 32C58.6666 33.4727 57.4727 34.6666 55.9999 34.6666H7.99992C6.52716 34.6666 5.33325 33.4727 5.33325 32C5.33325 30.5272 6.52716 29.3333 7.99992 29.3333Z" fill="black"/>
</svg>
